src/components/atoms/Icon/icons/trash-regular.svg

<svg xmlns="http://www.w3.org/2000/svg" width="24" height="24"><path fill="currentColor" d="M6 19c0 1.1.9 2 2 2h8c1.1 0 2-.9 2-2V7H6v12zM8 9h8v10H8V9zm7.5-5l-1-1h-5l-1 1H5v2h14V4h-3.5z"/></svg>

<svg xmlns="http://www.w3.org/2000/svg" xmlns:xlink="http://www.w3.org/1999/xlink" width="24" height="24" viewBox="0 0 24 24">
  <path fill="currentColor" d="M6,19 C6,20.1 6.9,21 8,21 L16,21 C17.1,21 18,20.1 18,19 L18,7 L6,7 L6,19 Z M8,9 L16,9 L16,19 L8,19 L8,9 Z M15.5,4 L14.5,3 L9.5,3 L8.5,4 L5,4 L5,6 L19,6 L19,4 L15.5,4 Z"/>
</svg>
